X:0
T:Holding Down the Fort
M:C|
C:© Paul Gitlitz 2007
R:Reel
N:Overheard in a cell phone conversation at Fort Worden during the Fiddle Tunes Festival.
K:D
(3ABc|"D"d2dd d2dd|"A"cdec "D"d2e2 |"Bm"fedf "A"edcA|"G"B4"A"A2(3ABc|!
|"D"d2dd d2dd|"A"cdec "D"d2A2 |"G"BAGB "D"AGFD|1"A"E4"D"D2:|2"A"E4"D"D4|!
|:("D"{fa}f2)ec d3A|"A"c2B2B^AB2|e2dc B3c|"D"B2A2"A"A^GA2|!
"D"F2)Ac d3A|"A"c2B2 B^AB2|"A"fgef dece|"D"d8:|]
